src/symbols/keycap/0038-FE0F-20E3.svg

<svg id="emoji" viewBox="0 0 72 72" xmlns="http://www.w3.org/2000/svg">
  <g id="grid">
    <path fill="#b3b3b3" d="M68,4V68H4V4H68m4-4H0V72H72V0Z"/>
    <path fill="none" stroke="#00a5ff" stroke-miterlimit="10" stroke-width="0.1" d="M12.923,10.9583H59.0769A1.9231,1.9231,0,0,1,61,12.8814V59.0352a1.9231,1.9231,0,0,1-1.9231,1.9231H12.9231A1.9231,1.9231,0,0,1,11,59.0352V12.8813A1.923,1.923,0,0,1,12.923,10.9583Z"/>
    <rect x="16" y="4" rx="2.2537" ry="2.2537" width="40" height="64" fill="none" stroke="#00a5ff" stroke-miterlimit="10" stroke-width="0.1"/>
    <rect x="16" y="4" rx="2.2537" ry="2.2537" width="40" height="64" transform="translate(72) rotate(90)" fill="none" stroke="#00a5ff" stroke-miterlimit="10" stroke-width="0.1"/>
    <circle cx="36" cy="36" r="29" fill="none" stroke="#00a5ff" stroke-miterlimit="10" stroke-width="0.1"/>
  </g>
  <g id="color">
    <rect x="11.75" y="12.4163" width="48" height="47.834" fill="#d0cfce"/>
  </g>
  <g id="line">
    <rect x="12" y="12.1663" width="48" height="48" fill="none" stroke="#000" stroke-linecap="round" stroke-linejoin="round" stroke-width="2"/>
    <path fill="none" stroke="#000" stroke-linecap="round" stroke-linejoin="round" stroke-width="2" d="M31.3392,40.518h0a4.3461,4.3461,0,0,0,4.3459,4.3459h.63a4.3459,4.3459,0,0,0,4.3459-4.3459h0a4.346,4.346,0,0,0-4.3459-4.3459h-.63A4.3462,4.3462,0,0,0,31.3392,40.518Z"/>
    <path fill="none" stroke="#000" stroke-linecap="round" stroke-linejoin="round" stroke-width="2" d="M31.3392,31.8143h0A4.346,4.346,0,0,0,35.6851,36.16h.63a4.3458,4.3458,0,0,0,4.3459-4.3459h0a4.3458,4.3458,0,0,0-4.3459-4.3456h-.63A4.346,4.346,0,0,0,31.3392,31.8143Z"/>
  </g>
</svg>

<svg viewBox="0 0 72 72" xmlns="http://www.w3.org/2000/svg"><path fill="#b3b3b3" d="M68 4v64H4V4h64m4-4H0v72h72V0z"/><path fill="none" stroke="#00a5ff" stroke-miterlimit="10" stroke-width=".1" d="M12.923 10.958h46.154A1.923 1.923 0 0161 12.881v46.154a1.923 1.923 0 01-1.923 1.923H12.923A1.923 1.923 0 0111 59.035V12.881a1.923 1.923 0 011.923-1.923z"/><rect x="16" y="4" rx="2.254" ry="2.254" width="40" height="64" fill="none" stroke="#00a5ff" stroke-miterlimit="10" stroke-width=".1"/><rect x="16" y="4" rx="2.254" ry="2.254" width="40" height="64" transform="rotate(90 36 36)" fill="none" stroke="#00a5ff" stroke-miterlimit="10" stroke-width=".1"/><circle cx="36" cy="36" r="29" fill="none" stroke="#00a5ff" stroke-miterlimit="10" stroke-width=".1"/><g stroke-linecap="round" stroke-miterlimit="10" stroke-width="6" stroke="#fff" fill="none" stroke-linejoin="round"><path d="M12 12.166h48v48H12z"/><path d="M31.34 40.518h0a4.346 4.346 0 004.345 4.346h.63a4.346 4.346 0 004.346-4.346h0a4.346 4.346 0 00-4.346-4.346h-.63a4.346 4.346 0 00-4.346 4.346zm0-8.704h0a4.346 4.346 0 004.345 4.346h.63a4.346 4.346 0 004.346-4.346h0a4.346 4.346 0 00-4.346-4.346h-.63a4.346 4.346 0 00-4.346 4.346z"/></g><path fill="#d0cfce" d="M11.75 12.416h48V60.25h-48z"/><g fill="none" stroke="#000" stroke-linecap="round" stroke-linejoin="round" stroke-width="2"><path d="M12 12.166h48v48H12z"/><path d="M31.34 40.518h0a4.346 4.346 0 004.345 4.346h.63a4.346 4.346 0 004.346-4.346h0a4.346 4.346 0 00-4.346-4.346h-.63a4.346 4.346 0 00-4.346 4.346zm0-8.704h0a4.346 4.346 0 004.345 4.346h.63a4.346 4.346 0 004.346-4.346h0a4.346 4.346 0 00-4.346-4.346h-.63a4.346 4.346 0 00-4.346 4.346z"/></g></svg>
